X:111
T: ICH WOLLT ICH LAEG UND SCHLIEF
N: E0707
O: Europa, Mitteleuropa, Deutschland, Sachsen, Anhalt - Zerbst
R: Liebes - Lied, Leid, Klage
M: 4/4
L: 1/8
K: F
C2 | F3AG2B2 | A6
c2 | c3Ad2cB | A6
c2 | c3BG2G2 | A3Bc2
Ac | c3BG2G2 | A3Bc2
C2 | F3AG2B2 | A6
c2 | c3dc2B2 | A6

